packages/icons/raw/shadcn/boxes.svg

<svg width="24" height="24" viewBox="0 0 24 24" fill="none" xmlns="http://www.w3.org/2000/svg">
<path d="M2.97 12.92C2.67476 13.0974 2.43033 13.348 2.26039 13.6476C2.09045 13.9472 2.00075 14.2856 2 14.63V17.87C2.00075 18.2144 2.09045 18.5528 2.26039 18.8524C2.43033 19.152 2.67476 19.4026 2.97 19.58L5.97 21.38C6.28106 21.5669 6.63711 21.6656 7 21.6656C7.36289 21.6656 7.71894 21.5669 8.03 21.38L12 19V13.5L7 10.5L2.97 12.92Z" stroke="black" stroke-width="2" stroke-linecap="round" stroke-linejoin="round"/>
<path d="M7.00001 16.5L2.26001 13.65" stroke="black" stroke-width="2" stroke-linecap="round" stroke-linejoin="round"/>
<path d="M7 16.5L12 13.5" stroke="black" stroke-width="2" stroke-linecap="round" stroke-linejoin="round"/>
<path d="M7 16.5V21.67" stroke="black" stroke-width="2" stroke-linecap="round" stroke-linejoin="round"/>
<path d="M12 13.5V19L15.97 21.38C16.2811 21.5669 16.6371 21.6656 17 21.6656C17.3629 21.6656 17.7189 21.5669 18.03 21.38L21.03 19.58C21.3252 19.4026 21.5697 19.152 21.7396 18.8524C21.9096 18.5528 21.9992 18.2144 22 17.87V14.63C21.9992 14.2856 21.9096 13.9472 21.7396 13.6476C21.5697 13.348 21.3252 13.0974 21.03 12.92L17 10.5L12 13.5Z" stroke="black" stroke-width="2" stroke-linecap="round" stroke-linejoin="round"/>
<path d="M17 16.5L12 13.5" stroke="black" stroke-width="2" stroke-linecap="round" stroke-linejoin="round"/>
<path d="M17 16.5L21.74 13.65" stroke="black" stroke-width="2" stroke-linecap="round" stroke-linejoin="round"/>
<path d="M17 16.5V21.67" stroke="black" stroke-width="2" stroke-linecap="round" stroke-linejoin="round"/>
<path d="M7.97 4.41997C7.67476 4.59735 7.43033 4.84797 7.26039 5.14756C7.09045 5.44714 7.00075 5.78554 7 6.12997V10.5L12 13.5L17 10.5V6.12997C16.9992 5.78554 16.9096 5.44714 16.7396 5.14756C16.5697 4.84797 16.3252 4.59735 16.03 4.41997L13.03 2.61997C12.7189 2.43308 12.3629 2.33435 12 2.33435C11.6371 2.33435 11.2811 2.43308 10.97 2.61997L7.97 4.41997Z" stroke="black" stroke-width="2" stroke-linecap="round" stroke-linejoin="round"/>
<path d="M12 8.00002L7.26001 5.15002" stroke="black" stroke-width="2" stroke-linecap="round" stroke-linejoin="round"/>
<path d="M12 8.00002L16.74 5.15002" stroke="black" stroke-width="2" stroke-linecap="round" stroke-linejoin="round"/>
<path d="M12 13.5V8" stroke="black" stroke-width="2" stroke-linecap="round" stroke-linejoin="round"/>
</svg>

<!-- @license lucide-static v1.23.0 - ISC -->
<svg
  class="lucide lucide-boxes"
  xmlns="http://www.w3.org/2000/svg"
  width="24"
  height="24"
  viewBox="0 0 24 24"
  fill="none"
  stroke="currentColor"
  stroke-width="2"
  stroke-linecap="round"
  stroke-linejoin="round"
>
  <path d="M2.97 12.92A2 2 0 0 0 2 14.63v3.24a2 2 0 0 0 .97 1.71l3 1.8a2 2 0 0 0 2.06 0L12 19v-5.5l-5-3-4.03 2.42Z" />
  <path d="m7 16.5-4.74-2.85" />
  <path d="m7 16.5 5-3" />
  <path d="M7 16.5v5.17" />
  <path d="M12 13.5V19l3.97 2.38a2 2 0 0 0 2.06 0l3-1.8a2 2 0 0 0 .97-1.71v-3.24a2 2 0 0 0-.97-1.71L17 10.5l-5 3Z" />
  <path d="m17 16.5-5-3" />
  <path d="m17 16.5 4.74-2.85" />
  <path d="M17 16.5v5.17" />
  <path d="M7.97 4.42A2 2 0 0 0 7 6.13v4.37l5 3 5-3V6.13a2 2 0 0 0-.97-1.71l-3-1.8a2 2 0 0 0-2.06 0l-3 1.8Z" />
  <path d="M12 8 7.26 5.15" />
  <path d="m12 8 4.74-2.85" />
  <path d="M12 13.5V8" />
</svg>
